X: 32
T: The Brown Thorn
M: 3/4
L: 1/8
B: "O'Neill's 32"
N: "Slow" "setting 2" "collected by J. O'Neill"
Z: "Transcribed by Norbert Paap, norbertp@bdu.uva.nl"
K:D
D-E|FE FABc|d3 c BA/2F/2|~E4-D2|ED2z2AB/2c/2|
d2 d-e f-d|fe2 d-c B-A|FA B3 c|B-A A2 AB/2c/2|
d2 d-e f-d|fe2 d-c B-A|FA Bd c/2d/2e/2f/2|d2z2 A,-B,|
DE FE FA|B-c d-c BA/2F/2|~E4-D2|~D4||
